X: 1
T: Anema e Core
T: Heart and Soul
S: MS of unknown origin
S: printed MS of unknown origin from Norm Nichols
M: C|
L: 1/4
K: G
B |\
"G"[BDG,]>D DD | "Bm7"DE "Bbdim"GF | "Am"E2 E2- | "D9"E2 zc |\
"Am"[cEA,]>E EE | "D7"EF AF | "G6" E2- "Bb7"E2- | "Am"E2 "D7"zB |
"G"[BDG,]>D DD | DE "A7"FG | "D7"F2 A2- | "B7"AA GF |\
"Em7"AG FG | "A7"FE GF | "Am7"[A4E4A,4] | "D7"[A2F2C2] zB |
"G"[BDG,]>D DD | "Bm7"DE "Bbdim"GF | "Am"[E2A,2] [E2-C2-] | "D9"[E2C2] zc |\
"Am"[cEA,]>E EE | "Am7"DE "D7"GA | "Bm7"[d4F4B,4] | "E7"[d2^G2D2] zd |
"Bm7"d>c c>B | "E7"BB AB | "Am"[c2E2A,2] [c2^D2-G,2-] | "Cm7"[c2^D2G,2] "F7"zc |\
"G"[BDG,]>D "E7"DD | "Am7"DF "D7"GA | "G"B/A/ [G3-B,3-] | [G3B,3] z | z2 z |]
